X:1
T:Title
%%score { 1 | 2 }
L:1/8
M:6/8
K:Eb
V:1 treble nm="Grand Piano"
V:2 bass 
V:1
 z3 z2[Q:1/4=90] E | G2 A B2 e | d2 c B2 G | [EA]2 [Ec] [EB]2 [EG] |[M:5/8] [DF]3 E2 |[M:1/8] E | %6
[M:3/4] G2 A B2 e | d2 c B2 G | [EA]2 [Ec] [EB]2 [EG] |[M:5/8] [DF]3 E2 |[M:1/8] E | %11
[M:3/4] D2 E [DF]2 [FA] | [EG]2 [DF] [B,E]2 [EG] | [DF]2 [EG] [FA]2 [Ac] | [GB]2 [FA] G2 e | %15
 d2 c B2 G |[M:13/8] [A,DF]3 .[G,B,E]3 z z z z z z2 |[M:3/4] [CEA]3 [B,EG]3 |] %18
V:2
 z3 z2 [E,G,] | [E,B,E]2 [F,B,E] [G,B,E]2 [G,B,E] | [A,E]2 [A,E] [E,G,E]2 [E,B,E] | %3
 [C,A,]2 [A,,A,] [B,,G,]2 [B,,B,] |[M:5/8] [B,,A,]3 [E,G,B,]2 |[M:1/8] [E,G,] | %6
[M:3/4] [E,B,E]2 [F,B,E] [G,B,E]2 [G,B,E] | [A,E]2 [A,E] [E,G,E]2 [E,B,E] | %8
 [C,A,]2 [A,,A,] [B,,G,]2 [B,,B,] |[M:5/8] [B,,A,]3 [E,G,B,]2 |[M:1/8] [E,G,B,] | %11
[M:3/4] [B,,F,B,]2 [B,,G,B,] [B,,B,]2 [B,,B,] | [B,,B,]2 [B,,A,] [E,G,]2 [E,B,] | %13
 [B,,B,]2 [B,,B,] [B,,B,]2 [B,,B,] | [C,B,]2 [D,B,] [E,B,E]2 [G,B,E] | %15
 [A,E]2 [A,E] [G,B,E]2 [E,B,E] |[M:13/8] B,,3 .E,3 z z z z z z2 |[M:3/4] A,,3 E,3 |] %18

